icons/lines/threesquare.svg

<svg xmlns="http://www.w3.org/2000/svg" width="24" height="24" viewBox="0 0 24 24" fill="none" stroke="currentColor" stroke-width="2" stroke-linecap="round" stroke-linejoin="round">
  <path d="M12 17v2.38c0 1.87-.75 2.62-2.63 2.62H4.62C2.75 22 2 21.25 2 19.38v-4.75C2 12.75 2.75 12 4.62 12H7" />
  <path d="M14.62 12C12.75 12 12 11.25 12 9.37" />
  <path d="M14.62 12C12.75 12 12 11.25 12 9.37V4.62C12 2.75 12.75 2 14.62 2h4.75C21.25 2 22 2.75 22 4.62v4.75c0 1.88-.75 2.63-2.63 2.63z" />
  <path d="M17 12v2.37c0 1.88-.75 2.63-2.63 2.63H9.62C7.75 17 7 16.25 7 14.37V9.62C7 7.75 7.75 7 9.62 7H12" />
  <path d="M9.62 17C7.75 17 7 16.25 7 14.37" />
</svg>

<svg xmlns="http://www.w3.org/2000/svg" width="24" height="24" viewBox="0 0 24 24" fill="none" stroke="currentColor" stroke-width="2" stroke-linecap="round" stroke-linejoin="round" >
  <path d="M12 17V19.38C12 21.25 11.25 22 9.37 22H4.62C2.75 22 2 21.25 2 19.38V14.63C2 12.75 2.75 12 4.62 12H7V14.37C7 16.25 7.75 17 9.62 17H12Z"/>
  <path d="M17 12V14.37C17 16.25 16.25 17 14.37 17H9.62C7.75 17 7 16.25 7 14.37V9.62C7 7.75 7.75 7 9.62 7H12V9.37C12 11.25 12.75 12 14.62 12H17Z"/>
  <path d="M22 4.62V9.37C22 11.25 21.25 12 19.37 12H14.62C12.75 12 12 11.25 12 9.37V4.62C12 2.75 12.75 2 14.62 2H19.37C21.25 2 22 2.75 22 4.62Z"/>
  </svg>
